dist/img/svg/youtube.svg

<svg width="21" height="14" viewBox="0 0 21 14" fill="none" xmlns="http://www.w3.org/2000/svg">
<path d="M19.4371 1.45C18.8946 0.485 18.3059 0.3075 17.1071 0.24C15.9096 0.15875 12.8984 0.125 10.2896 0.125C7.67586 0.125 4.66336 0.15875 3.46711 0.23875C2.27086 0.3075 1.68086 0.48375 1.13336 1.45C0.574609 2.41375 0.287109 4.07375 0.287109 6.99625C0.287109 6.99875 0.287109 7 0.287109 7C0.287109 7.0025 0.287109 7.00375 0.287109 7.00375V7.00625C0.287109 9.91625 0.574609 11.5887 1.13336 12.5425C1.68086 13.5075 2.26961 13.6825 3.46586 13.7638C4.66336 13.8338 7.67586 13.875 10.2896 13.875C12.8984 13.875 15.9096 13.8337 17.1084 13.765C18.3071 13.6837 18.8959 13.5088 19.4384 12.5438C20.0021 11.59 20.2871 9.9175 20.2871 7.0075C20.2871 7.0075 20.2871 7.00375 20.2871 7.00125C20.2871 7.00125 20.2871 6.99875 20.2871 6.9975C20.2871 4.07375 20.0021 2.41375 19.4371 1.45ZM7.78711 10.75V3.25L14.0371 7L7.78711 10.75Z" fill="white"/>
</svg>

<svg width="21" height="14" fill="none" xmlns="http://www.w3.org/2000/svg"><path d="M19.437 1.45C18.895.485 18.306.307 17.107.24 15.91.159 12.898.125 10.29.125c-2.614 0-5.627.034-6.823.114C2.271.308 1.681.484 1.133 1.45.575 2.414.287 4.074.287 6.996v.01c0 2.91.288 4.583.846 5.537.548.965 1.137 1.14 2.333 1.22 1.197.07 4.21.112 6.824.112 2.608 0 5.62-.041 6.818-.11 1.2-.081 1.788-.256 2.33-1.221.564-.954.85-2.627.85-5.537v-.01c0-2.923-.286-4.583-.85-5.547zm-11.65 9.3v-7.5L14.037 7l-6.25 3.75z" fill="#fff"/></svg>
